X:2
T:Plain Hunt
M:6/8
L:1/8
K:Gmaj
edc BAG | deB cGA | dBe GcA | BdG eAc |
BGd Aec | GBA dce | GAB cde | AGc Bed |
AcG eBd | cAe GdB | ceA dGB | ecd ABG |
edc BAG|

